svg/furkot/yannick/sunrise.svg

<svg viewBox="0 0 512 512" xmlns="http://www.w3.org/2000/svg"><path d="m252.254 163.174c7.909 0 13.321-5.273 13.321-13.32v-53.004c0-7.909-5.272-13.32-13.321-13.32-8.048 0-13.321 5.272-13.321 13.32v53.004c0 8.047 7.909 13.32 13.321 13.32zm175.106 172.47c0 7.908 5.273 13.321 13.322 13.321h53.003c7.908 0 13.321-5.273 13.321-13.321 0-8.049-5.272-13.321-13.321-13.321h-53.003c-8.049.14-13.322 8.049-13.322 13.321zm-34.548-121.964 37.186-37.186c5.273-5.272 5.273-13.32 0-18.593-5.272-5.272-13.322-5.272-18.593 0l-37.186 37.186c-5.272 5.273-5.272 13.321 0 18.593 5.412 5.273 15.956 5.273 18.593 0zm-283.891 135.285h68.961l77.008-66.324 77.008 66.324h66.324c0-5.273 0-7.909 0-13.321 0-79.644-66.324-145.968-145.968-145.968-79.643 0-145.969 66.324-145.969 145.968 0 5.412 0 8.048 2.636 13.321z"/><path d="m491.048 402.107h-145.968l-92.826-79.644-92.826 79.644h-143.471c-7.909 0-13.321 5.273-13.321 13.322 0 8.048 5.273 13.32 13.321 13.32h161.925l31.774-26.502 47.732-39.822 47.731 39.822 31.913 26.502h161.925c7.908 0 13.321-5.272 13.321-13.32-5.273-8.049-13.319-13.322-21.23-13.322zm-477.728-53.142h53.004c7.909 0 13.32-5.273 13.32-13.321 0-8.049-5.272-13.321-13.32-13.321h-53.004c-7.909.001-13.32 7.91-13.32 13.321.139 8.048 5.411 13.321 13.32 13.321zm98.238-135.285c5.272 5.273 13.32 5.273 18.593 0 5.272-5.272 5.272-13.32 0-18.593l-37.186-37.186c-5.273-5.272-13.321-5.272-18.593 0-5.273 5.273-5.273 13.321 0 18.593z"/></svg>

<svg xmlns="http://www.w3.org/2000/svg" viewBox="0 0 512 512"><path d="M252.254 163.174C260.163 163.174 265.575 157.901 265.575 149.854V96.85C265.575 88.941 260.303 83.53 252.254 83.53 244.206 83.53 238.933 88.802 238.933 96.85V149.854C238.933 157.901 246.842 163.174 252.254 163.174ZM427.36 335.644C427.36 343.552 432.633 348.965 440.682 348.965H493.685C501.593 348.965 507.006 343.692 507.006 335.644 507.006 327.595 501.734 322.323 493.685 322.323H440.682C432.633 322.463 427.36 330.372 427.36 335.644ZM392.812 213.68L429.998 176.494C435.271 171.222 435.271 163.174 429.998 157.901 424.726 152.629 416.676 152.629 411.405 157.901L374.219 195.087C368.947 200.36 368.947 208.408 374.219 213.68 379.631 218.953 390.175 218.953 392.812 213.68ZM108.921 348.965H177.882L254.89 282.641 331.898 348.965H398.222C398.222 343.692 398.222 341.056 398.222 335.644 398.222 256 331.898 189.676 252.254 189.676 172.611 189.676 106.285 256 106.285 335.644 106.285 341.056 106.285 343.692 108.921 348.965Z"/><path d="M491.048 402.107H345.08L252.254 322.463 159.428 402.107H15.957C8.048 402.107 2.636 407.38 2.636 415.429 2.636 423.477 7.909 428.749 15.957 428.749H177.882L209.656 402.247 257.388 362.425 305.119 402.247 337.032 428.749H498.957C506.865 428.749 512.278 423.477 512.278 415.429 507.005 407.38 498.959 402.107 491.048 402.107ZM13.32 348.965H66.324C74.233 348.965 79.644 343.692 79.644 335.644 79.644 327.595 74.372 322.323 66.324 322.323H13.32C5.411 322.324 0 330.233 0 335.644 0.139 343.692 5.411 348.965 13.32 348.965ZM111.558 213.68C116.83 218.953 124.878 218.953 130.151 213.68 135.423 208.408 135.423 200.36 130.151 195.087L92.965 157.901C87.692 152.629 79.644 152.629 74.372 157.901 69.099 163.174 69.099 171.222 74.372 176.494L111.558 213.68Z"/></svg>
